ui/public/images/logo_pole_emploi.svg

<?xml version="1.0" encoding="UTF-8"?>
<svg fill="none" viewBox="0 0 80 64" xmlns="http://www.w3.org/2000/svg">
<path d="m39.916 0.23914c-11.52 0-20.859 9.2847-20.859 20.738s9.339 20.738 20.859 20.738c11.52 0 20.859-9.2847 20.859-20.738 8e-4 -5.5003-2.1966-10.776-6.1086-14.665-3.9121-3.8893-9.2182-6.0739-14.751-6.0731z" fill="url(#b)"/>
<path d="m41.875 1.7833c-0.6572-0.06689-1.3174-0.10007-1.9781-0.09941-6.342 0.00678-12.281 3.094-15.905 8.2682-3.6241 5.1742-4.4765 11.783-2.2828 17.698 3.6938-8.5188 12.981-8.7207 20.094-6.2291 8.5468 1.7491 18.309 1.3515 16.916-4.9709-1.5938-7.3351-8.1406-13.788-16.844-14.667z" fill="url(#a)"/>
<path d="m50.816 7.2668c-1.9021-0.02483-3.792 0.305-5.5718 0.97243-1.5909 0.599-3.0239 1.5498-4.1907 2.7806-1.162 1.2528-2.0458 2.7348-2.5937 4.3495-0.6115 1.7926-0.9147 3.6747-0.8969 5.5674 0 4.2781 1.2125 7.5961 3.6125 10.05s5.7469 3.6815 10.15 3.6847c1.6825 0.027 3.3586-0.2121 4.9656-0.7084 2.6188-0.9165 5.5657-3.5138 6.0688-5.9619 0.3281-1.6031-0.6594-1.9511-1.1938-2.0226-0.1 0-0.2031-0.0186-0.3125-0.0186-0.5073-0.019-1.0037 0.1492-1.3937 0.4722-0.3688 0.3387-1.4406 1.336-1.9906 1.8144-0.5769 0.4998-1.19 0.9567-1.8344 1.367-0.6521 0.4237-1.3641 0.7483-2.1125 0.9631-0.7805 0.2141-1.5873 0.3186-2.3969 0.3107-2.6609 0.0413-5.1023-1.4623-6.25-3.8493-0.6173-1.2337-0.9554-2.5868-0.9906-3.9643-0.0121-0.213 0.0682-0.421 0.2206-0.5712 0.1523-0.1503 0.3621-0.2285 0.5763-0.2148h13.231c1.7844 0 3.125-0.2579 4.0625-0.7301 0.8156-0.4194 1.2781-1.3453 1.2875-3.0292-0.0149-1.8701-0.4994-3.7069-1.4094-5.3436-0.9821-1.787-2.4493-3.2639-4.2343-4.2626-1.875-1.0998-4.1375-1.6559-6.8032-1.6559zm5.6907 11.908h-11.8c-0.4282 0-0.8563-0.3449-0.7907-0.7643 0.275-2.2307 0.9532-3.9829 2.0938-5.2039 1.1755-1.2673 2.8448-1.9674 4.5781-1.92 1.9031 0 3.5094 0.6214 4.6875 1.892 1.1781 1.2707 1.8063 2.9981 2.0094 5.2816-0.0251 0.4059-0.3692 0.7192-0.7781 0.7083v0.0063z" fill="#DA001F"/>
<path d="m41.053 11.02c-1.162 1.2528-2.0458 2.7347-2.5937 4.3495-0.6115 1.7925-0.9147 3.6746-0.8969 5.5673 0 4.2781 1.2125 7.5962 3.6125 10.05 2.4 2.4544 5.7469 3.6816 10.15 3.6847 1.6264 0.0235 3.2469-0.1985 4.8063-0.6586 1.8998-2.3302 3.2677-5.0429 4.0093-7.9503-0.2529 0.0712-0.4866 0.1975-0.6843 0.3697-0.3688 0.3386-1.4407 1.3359-1.9907 1.8143-0.5769 0.4998-1.19 0.9567-1.8343 1.367-0.6521 0.4237-1.3641 0.7483-2.1125 0.9631-0.7805 0.2141-1.5873 0.3187-2.3969 0.3107-2.661 0.0414-5.1023-1.4622-6.25-3.8493-0.6173-1.2337-0.9555-2.5868-0.9906-3.9643-0.0121-0.213 0.0682-0.4209 0.2205-0.5712 0.1524-0.1503 0.3622-0.2285 0.5763-0.2148h13.231c0.9542 0.0164 1.9069-0.0817 2.8375-0.292 0.0156-0.3387 0.025-0.6835 0.025-1.0284 0.0081-4.5755-1.5145-9.0238-4.3281-12.645-1.7803-0.73965-3.696-1.1026-5.625-1.0656-1.9021-0.02483-3.7921 0.30501-5.5719 0.97243-1.5929 0.6013-3.0271 1.5554-4.1938 2.79zm9.5344 0.2609c1.9031 0 3.5094 0.6214 4.6875 1.8921 1.1781 1.2706 1.8063 2.998 2.0094 5.2815-0.0219 0.4122-0.3727 0.7304-0.7875 0.7146h-11.791c-0.4282 0-0.8563-0.3449-0.7907-0.7643 0.275-2.2307 0.9532-3.9829 2.0938-5.2039 1.1755-1.2673 2.8448-1.9674 4.5781-1.92z" fill="#fff"/>
<path d="m60.669 51.548c-2.4376 0-3.6563 1.4591-3.6563 4.3774v7.8012h1.5406v-3.4548h2.1157c2.4479 0 3.6708-1.4498 3.6687-4.3495s-1.225-4.3578-3.6687-4.3743zm1.7312 6.3099c-0.3333 0.4846-0.9104 0.7269-1.7312 0.7269h-2.1157v-2.6625c0-0.8916 0.1313-1.5378 0.4-1.9355 0.325-0.493 0.8969-0.7405 1.7157-0.7425 0.8187-0.0021 1.3958 0.2454 1.7312 0.7425 0.275 0.3977 0.4125 1.0428 0.4125 1.9355 0 0.8824-0.1469 1.5255-0.4125 1.9356zm4.6-0.727v-9.0284h-1.5375v9.0097c0 2.1085 1.3125 3.1627 3.9375 3.1627v-1.6963c-0.9594 0-1.6188-0.1491-1.9844-0.4473-0.2886-0.2503-0.4424-0.6206-0.4156-1.0004zm6.5125-5.5829c-2.4479 0-3.6719 1.4581-3.6719 4.3743 0 2.9163 1.224 4.3661 3.6719 4.3495 2.4375 0 3.6552-1.4498 3.6531-4.3495s-1.2198-4.3578-3.6531-4.3743zm1.7156 6.3099c-0.325 0.4846-0.8968 0.7269-1.7156 0.7269-0.8187 0-1.3917-0.2423-1.7187-0.7269-0.2667-0.3977-0.399-1.0429-0.3969-1.9356s0.1343-1.5378 0.3969-1.9355c0.327-0.493 0.9-0.7405 1.7187-0.7425 0.8188-0.0021 1.3906 0.2454 1.7156 0.7425 0.2646 0.3977 0.3969 1.0428 0.3969 1.9355s-0.1323 1.5379-0.3969 1.9356zm3.0782-6.3099h1.5375v8.7363h-1.5375v-8.7363zm0-3.4455h1.5375v1.6963h-1.5375v-1.6963zm-26.206 3.4455c-1.3 0-2.2615 0.439-2.8844 1.3172-0.625-0.8802-1.5916-1.3193-2.9-1.3172-2.4375 0-3.6562 1.4581-3.6562 4.3743v4.3495h1.5406v-4.3495c0-0.8885 0.1313-1.5316 0.4-1.9262 0.325-0.4929 0.8969-0.7404 1.7156-0.7425 0.8188-0.0021 1.3959 0.2454 1.7313 0.7425 0.2604 0.3894 0.3906 1.0315 0.3906 1.9262v4.3495h1.5625v-4.3495c0-0.8885 0.1333-1.5306 0.4-1.9262 0.325-0.4929 0.8969-0.7404 1.7156-0.7425 0.8188-0.0021 1.3959 0.2454 1.7313 0.7425 0.2666 0.3956 0.4 1.0377 0.4 1.9262v4.3495h1.5406v-4.3495c-0.0104-2.9162-1.2396-4.3743-3.6875-4.3743zm-14.353 0c-2.2281 0-3.6844 1.6155-3.6844 4.4085 0 3.287 1.7313 4.4272 3.9063 4.4272 1.2352 0.0644 2.4327-0.4342 3.2531-1.3546l-1.1125-1.0377c-0.5266 0.6032-1.3042 0.9301-2.1063 0.8855-1.4218 0-2.2093-0.9321-2.2093-2.4202h5.6249v-0.7643c0.0094-2.4419-1.3437-4.1444-3.6718-4.1444zm-1.9531 3.7095c-0.0154-0.4031 0.0605-0.8044 0.2218-1.1744 0.2968-0.6823 0.984-1.1139 1.7313-1.0874 0.7424-0.0258 1.4238 0.4069 1.7125 1.0874 0.1666 0.3689 0.2487 0.77 0.2406 1.1744h-3.9062z" fill="#DA001F"/>
<path d="m18.481 57.131v-9.0284h-1.5375v9.0097c0 2.1085 1.3114 3.1627 3.9343 3.1627v-1.6963c-0.9562 0-1.6166-0.1491-1.9812-0.4473-0.2898-0.2495-0.4439-0.6204-0.4156-1.0004zm10.294-1.4292c0-2.4512-1.3531-4.1537-3.6844-4.1537-2.225 0-3.6812 1.6155-3.6812 4.4085 0 3.287 1.7312 4.4272 3.9062 4.4272 1.2353 0.0644 2.4328-0.4342 3.2532-1.3546l-1.1157-1.0377c-0.5259 0.604-1.304 0.931-2.1062 0.8855-1.4188 0-2.2063-0.9321-2.2063-2.4202h5.625l0.0094-0.755zm-5.625-0.4442c-0.0153-0.4031 0.0605-0.8044 0.2219-1.1744 0.295-0.6824 0.9815-1.1144 1.7281-1.0874 0.7427-0.0267 1.4245 0.4063 1.7125 1.0874 0.1666 0.3689 0.2488 0.77 0.2406 1.1744h-3.9031zm-19.509-3.7095c-2.4271 0-3.6406 1.4581-3.6406 4.3743v7.8012h1.5406v-3.4517h2.1156c2.4479 0 3.6708-1.4498 3.6688-4.3495s-1.2302-4.3578-3.6844-4.3743zm1.7312 6.3099c-0.3375 0.4846-0.9125 0.7269-1.7312 0.7269h-2.1156v-2.6625c0-0.8916 0.13125-1.5378 0.4-1.9355 0.325-0.493 0.89688-0.7405 1.7156-0.7425 0.81875 0 1.3938 0.2485 1.7312 0.7425 0.26666 0.3977 0.4 1.0428 0.4 1.9355 0 0.8823-0.14688 1.5255-0.4 1.9356zm6.675-6.3099c-2.4459 0-3.6688 1.4581-3.6688 4.3743 0 2.9163 1.2229 4.3661 3.6688 4.3495 2.4375 0 3.6562-1.4498 3.6562-4.3495s-1.2187-4.3578-3.6562-4.3743zm1.7031 6.3099c-0.325 0.4846-0.8937 0.7269-1.7062 0.7269s-1.3855-0.2423-1.7188-0.7269c-0.2656-0.4101-0.39687-1.0533-0.39687-1.9356s0.13127-1.5378 0.39687-1.9355c0.3333-0.493 0.9063-0.7405 1.7188-0.7425 0.8125-0.0021 1.3812 0.2454 1.7062 0.7425 0.2625 0.3977 0.3969 1.0439 0.3969 1.9355 0 0.8917-0.1313 1.5534-0.3969 1.9356zm-1.775-8.4226 2.4563 1.3826 0.6937-0.9352-3.15-1.7802-3.1531 1.7802 0.69687 0.9352 2.4562-1.3826z" fill="#003979"/>
<defs>
<linearGradient id="b" x1="40.069" x2="40.069" y1=".23914" y2="41.715" gradientUnits="userSpaceOnUse">
<stop stop-color="#5FC4E4" offset="0"/>
<stop stop-color="#5DC2E3" offset=".01"/>
<stop stop-color="#1B6AA1" offset=".28"/>
<stop stop-color="#004787" offset=".41"/>
<stop stop-color="#003A72" offset=".6"/>
<stop stop-color="#00173D" offset=".99"/>
<stop stop-color="#00163B" offset="1"/>
</linearGradient>
<linearGradient id="a" x1="42.093" x2="40.794" y1="2.5634" y2="30.261" gradientUnits="userSpaceOnUse">
<stop stop-color="#A2DAF4" offset="0"/>
<stop stop-color="#90C8E5" offset=".09"/>
<stop stop-color="#538BB2" offset=".4"/>
<stop stop-color="#265E8D" offset=".67"/>
<stop stop-color="#0A4276" offset=".88"/>
<stop stop-color="#00386E" offset="1"/>
</linearGradient>
</defs>
</svg>

<svg width="80" height="64" viewBox="0 0 80 64" fill="none" xmlns="http://www.w3.org/2000/svg">
<path d="M39.9156 0.239136C28.3953 0.239136 19.0563 9.5238 19.0563 20.977C19.0563 32.4302 28.3953 41.7149 39.9156 41.7149C51.436 41.7149 60.775 32.4302 60.775 20.977C60.7758 15.4767 58.5784 10.2015 54.6664 6.31221C50.7543 2.42292 45.4482 0.238312 39.9156 0.239136Z" fill="url(#paint0_linear)"/>
<path d="M41.875 1.78326C41.2178 1.71637 40.5576 1.68319 39.8969 1.68385C33.5549 1.69063 27.6163 4.77784 23.9922 9.95205C20.3681 15.1263 19.5157 21.7346 21.7094 27.6504C25.4032 19.1316 34.6907 18.9297 41.8032 21.4213C50.35 23.1704 60.1125 22.7728 58.7188 16.4504C57.125 9.1153 50.5782 2.66249 41.875 1.78326Z" fill="url(#paint1_linear)"/>
<path d="M50.8156 7.26681C48.9135 7.24198 47.0236 7.57181 45.2438 8.23924C43.6529 8.83824 42.2199 9.78908 41.0531 11.0198C39.8911 12.2726 39.0073 13.7546 38.4594 15.3693C37.8479 17.1619 37.5447 19.044 37.5625 20.9367C37.5625 25.2148 38.775 28.5328 41.175 30.9872C43.575 33.4416 46.9219 34.6687 51.325 34.6719C53.0075 34.6989 54.6836 34.4598 56.2906 33.9635C58.9094 33.047 61.8563 30.4497 62.3594 28.0016C62.6875 26.3985 61.7 26.0505 61.1656 25.979C61.0656 25.979 60.9625 25.9604 60.8531 25.9604C60.3458 25.9414 59.8494 26.1096 59.4594 26.4326C59.0906 26.7713 58.0188 27.7686 57.4688 28.247C56.8919 28.7468 56.2788 29.2037 55.6344 29.614C54.9823 30.0377 54.2703 30.3623 53.5219 30.5771C52.7414 30.7912 51.9346 30.8957 51.125 30.8878C48.4641 30.9291 46.0227 29.4255 44.875 27.0385C44.2577 25.8048 43.9196 24.4517 43.8844 23.0742C43.8723 22.8612 43.9526 22.6532 44.105 22.503C44.2573 22.3527 44.4671 22.2745 44.6813 22.2882H57.9125C59.6969 22.2882 61.0375 22.0303 61.975 21.5581C62.7906 21.1387 63.2531 20.2128 63.2625 18.5289C63.2476 16.6588 62.7631 14.822 61.8531 13.1853C60.871 11.3983 59.4038 9.92136 57.6188 8.92273C55.7438 7.82292 53.4813 7.26681 50.8156 7.26681ZM56.5063 19.1752H44.7063C44.2781 19.1752 43.85 18.8303 43.9156 18.4109C44.1906 16.1802 44.8688 14.428 46.0094 13.207C47.1849 11.9397 48.8542 11.2396 50.5875 11.287C52.4906 11.287 54.0969 11.9084 55.275 13.179C56.4531 14.4497 57.0813 16.1771 57.2844 18.4606C57.2593 18.8665 56.9152 19.1798 56.5063 19.1689V19.1752Z" fill="#DA001F"/>
<path d="M41.0531 11.0197C39.8911 12.2725 39.0073 13.7544 38.4594 15.3692C37.8479 17.1617 37.5447 19.0438 37.5625 20.9365C37.5625 25.2146 38.775 28.5327 41.175 30.987C43.575 33.4414 46.9219 34.6686 51.325 34.6717C52.9514 34.6952 54.5719 34.4732 56.1313 34.0131C58.0311 31.6829 59.399 28.9702 60.1406 26.0628C59.8877 26.134 59.654 26.2603 59.4563 26.4325C59.0875 26.7711 58.0156 27.7684 57.4656 28.2468C56.8887 28.7466 56.2756 29.2035 55.6313 29.6138C54.9792 30.0375 54.2672 30.3621 53.5188 30.5769C52.7383 30.791 51.9315 30.8956 51.1219 30.8876C48.4609 30.929 46.0196 29.4254 44.8719 27.0383C44.2546 25.8046 43.9164 24.4515 43.8813 23.074C43.8692 22.861 43.9495 22.6531 44.1018 22.5028C44.2542 22.3525 44.464 22.2743 44.6781 22.288H57.9094C58.8636 22.3044 59.8163 22.2063 60.7469 21.996C60.7625 21.6573 60.7719 21.3125 60.7719 20.9676C60.78 16.3921 59.2574 11.9438 56.4438 8.32295C54.6635 7.5833 52.7478 7.22038 50.8188 7.25732C48.9167 7.23249 47.0267 7.56233 45.2469 8.22975C43.654 8.83105 42.2198 9.78515 41.0531 11.0197ZM50.5875 11.2806C52.4906 11.2806 54.0969 11.902 55.275 13.1727C56.4531 14.4433 57.0813 16.1707 57.2844 18.4542C57.2625 18.8664 56.9117 19.1846 56.4969 19.1688H44.7063C44.2781 19.1688 43.85 18.8239 43.9156 18.4045C44.1906 16.1738 44.8688 14.4216 46.0094 13.2006C47.1849 11.9333 48.8542 11.2332 50.5875 11.2806Z" fill="white"/>
<path d="M60.6688 51.5479C58.2312 51.5479 57.0125 53.007 57.0125 55.9253V63.7265H58.5531V60.2717H60.6688C63.1167 60.2717 64.3396 58.8219 64.3375 55.9222C64.3354 53.0225 63.1125 51.5644 60.6688 51.5479ZM62.4 57.8578C62.0667 58.3424 61.4896 58.5847 60.6688 58.5847H58.5531V55.9222C58.5531 55.0306 58.6844 54.3844 58.9531 53.9867C59.2781 53.4937 59.85 53.2462 60.6688 53.2442C61.4875 53.2421 62.0646 53.4896 62.4 53.9867C62.675 54.3844 62.8125 55.0295 62.8125 55.9222C62.8125 56.8046 62.6656 57.4477 62.4 57.8578ZM67 57.1308V48.1024H65.4625V57.1121C65.4625 59.2206 66.775 60.2748 69.4 60.2748V58.5785C68.4406 58.5785 67.7812 58.4294 67.4156 58.1312C67.127 57.8809 66.9732 57.5106 67 57.1308ZM73.5125 51.5479C71.0646 51.5479 69.8406 53.006 69.8406 55.9222C69.8406 58.8385 71.0646 60.2883 73.5125 60.2717C75.95 60.2717 77.1677 58.8219 77.1656 55.9222C77.1635 53.0225 75.9458 51.5644 73.5125 51.5479ZM75.2281 57.8578C74.9031 58.3424 74.3313 58.5847 73.5125 58.5847C72.6938 58.5847 72.1208 58.3424 71.7938 57.8578C71.5271 57.4601 71.3948 56.8149 71.3969 55.9222C71.399 55.0295 71.5312 54.3844 71.7938 53.9867C72.1208 53.4937 72.6938 53.2462 73.5125 53.2442C74.3313 53.2421 74.9031 53.4896 75.2281 53.9867C75.4927 54.3844 75.625 55.0295 75.625 55.9222C75.625 56.8149 75.4927 57.4601 75.2281 57.8578ZM78.3063 51.5479H79.8438V60.2842H78.3063V51.5479ZM78.3063 48.1024H79.8438V49.7987H78.3063V48.1024ZM52.1 51.5479C50.8 51.5479 49.8385 51.9869 49.2156 52.8651C48.5906 51.9849 47.624 51.5458 46.3156 51.5479C43.8781 51.5479 42.6594 53.006 42.6594 55.9222V60.2717H44.2V55.9222C44.2 55.0337 44.3313 54.3906 44.6 53.996C44.925 53.5031 45.4969 53.2556 46.3156 53.2535C47.1344 53.2514 47.7115 53.4989 48.0469 53.996C48.3073 54.3854 48.4375 55.0275 48.4375 55.9222V60.2717H50V55.9222C50 55.0337 50.1333 54.3916 50.4 53.996C50.725 53.5031 51.2969 53.2556 52.1156 53.2535C52.9344 53.2514 53.5115 53.4989 53.8469 53.996C54.1135 54.3916 54.2469 55.0337 54.2469 55.9222V60.2717H55.7875V55.9222C55.7771 53.006 54.5479 51.5479 52.1 51.5479ZM37.7469 51.5479C35.5188 51.5479 34.0625 53.1634 34.0625 55.9564C34.0625 59.2434 35.7938 60.3836 37.9688 60.3836C39.204 60.448 40.4015 59.9494 41.2219 59.029L40.1094 57.9913C39.5828 58.5945 38.8052 58.9214 38.0031 58.8768C36.5813 58.8768 35.7938 57.9447 35.7938 56.4566H41.4187V55.6923C41.4281 53.2504 40.075 51.5479 37.7469 51.5479ZM35.7938 55.2574C35.7784 54.8543 35.8543 54.453 36.0156 54.083C36.3124 53.4007 36.9996 52.9691 37.7469 52.9956C38.4893 52.9698 39.1707 53.4025 39.4594 54.083C39.626 54.4519 39.7081 54.853 39.7 55.2574H35.7938Z" fill="#DA001F"/>
<path d="M18.4813 57.1308V48.1024H16.9438V57.1121C16.9438 59.2206 18.2552 60.2748 20.8781 60.2748V58.5785C19.9219 58.5785 19.2615 58.4294 18.8969 58.1312C18.6071 57.8817 18.453 57.5108 18.4813 57.1308ZM28.775 55.7016C28.775 53.2504 27.4219 51.5479 25.0906 51.5479C22.8656 51.5479 21.4094 53.1634 21.4094 55.9564C21.4094 59.2434 23.1406 60.3836 25.3156 60.3836C26.5509 60.448 27.7484 59.9494 28.5688 59.029L27.4531 57.9913C26.9272 58.5953 26.1491 58.9223 25.3469 58.8768C23.9281 58.8768 23.1406 57.9447 23.1406 56.4566H28.7656L28.775 55.7016ZM23.15 55.2574C23.1347 54.8543 23.2105 54.453 23.3719 54.083C23.6669 53.4006 24.3534 52.9686 25.1 52.9956C25.8427 52.9689 26.5245 53.4019 26.8125 54.083C26.9791 54.4519 27.0613 54.853 27.0531 55.2574H23.15ZM3.64063 51.5479C1.21354 51.5479 0 53.006 0 55.9222V63.7234H1.54063V60.2717H3.65625C6.10417 60.2717 7.32708 58.8219 7.325 55.9222C7.32292 53.0225 6.09479 51.5644 3.64063 51.5479ZM5.37188 57.8578C5.03438 58.3424 4.45938 58.5847 3.64063 58.5847H1.525V55.9222C1.525 55.0306 1.65625 54.3844 1.925 53.9867C2.25 53.4937 2.82188 53.2462 3.64063 53.2442C4.45938 53.2442 5.03438 53.4927 5.37188 53.9867C5.63854 54.3844 5.77188 55.0295 5.77188 55.9222C5.77188 56.8045 5.625 57.4477 5.37188 57.8578ZM12.0469 51.5479C9.60104 51.5479 8.37813 53.006 8.37813 55.9222C8.37813 58.8385 9.60104 60.2883 12.0469 60.2717C14.4844 60.2717 15.7031 58.8219 15.7031 55.9222C15.7031 53.0225 14.4844 51.5644 12.0469 51.5479ZM13.75 57.8578C13.425 58.3424 12.8563 58.5847 12.0438 58.5847C11.2313 58.5847 10.6583 58.3424 10.325 57.8578C10.0594 57.4477 9.92813 56.8045 9.92813 55.9222C9.92813 55.0399 10.0594 54.3844 10.325 53.9867C10.6583 53.4937 11.2313 53.2462 12.0438 53.2442C12.8563 53.2421 13.425 53.4896 13.75 53.9867C14.0125 54.3844 14.1469 55.0306 14.1469 55.9222C14.1469 56.8139 14.0156 57.4756 13.75 57.8578ZM11.975 49.4352L14.4313 50.8178L15.125 49.8826L11.975 48.1024L8.82188 49.8826L9.51875 50.8178L11.975 49.4352Z" fill="#003979"/>
<defs>
<linearGradient id="paint0_linear" x1="40.0688" y1="0.239136" x2="40.0688" y2="41.7149" gradientUnits="userSpaceOnUse">
<stop stop-color="#5FC4E4"/>
<stop offset="0.01" stop-color="#5DC2E3"/>
<stop offset="0.28" stop-color="#1B6AA1"/>
<stop offset="0.41" stop-color="#004787"/>
<stop offset="0.6" stop-color="#003A72"/>
<stop offset="0.99" stop-color="#00173D"/>
<stop offset="1" stop-color="#00163B"/>
</linearGradient>
<linearGradient id="paint1_linear" x1="42.093" y1="2.56344" x2="40.7939" y2="30.2606" gradientUnits="userSpaceOnUse">
<stop stop-color="#A2DAF4"/>
<stop offset="0.09" stop-color="#90C8E5"/>
<stop offset="0.4" stop-color="#538BB2"/>
<stop offset="0.67" stop-color="#265E8D"/>
<stop offset="0.88" stop-color="#0A4276"/>
<stop offset="1" stop-color="#00386E"/>
</linearGradient>
</defs>
</svg>
